lib/svgs/slice.svg

<?xml version="1.0" encoding="UTF-8"?>
<svg width="16px" height="16px" viewBox="0 0 16 16" version="1.1" xmlns="http://www.w3.org/2000/svg" xmlns:xlink="http://www.w3.org/1999/xlink">
    <!-- Generator: sketchtool 51.3 (57544) - http://www.bohemiancoding.com/sketch -->
    <title>slice</title>
    <desc>Created with sketchtool.</desc>
    <defs></defs>
    <g id="Icons" stroke="none" stroke-width="1" fill="none" fill-rule="evenodd">
        <g id="Web" transform="translate(-387.000000, -504.000000)" fill="#000000">
            <g id="stage" transform="translate(387.000000, 504.000000)">
                <path d="M9.6722,7.736 L8.2642,6.328 L10.7412,4.612 L11.3882,5.26 L9.6722,7.736 L9.6722,7.736 Z M14,0 C15.1,0 16,0.9 16,2 L16,10.8 C16,11.9 15.1,12.8 14,12.8 L12.8,12.8 L12.8,14 C12.8,15.1 11.9,16 10.8,16 L2,16 C0.9,16 -8.8817842e-16,15.1 -8.8817842e-16,14 L-8.8817842e-16,5.2 C-8.8817842e-16,4.1 0.9,3.2 2,3.2 L3.2,3.2 L3.2,2 C3.2,0.9 4.1,0 5.2,0 L14,0 Z M14.8,10.8 L14.8,2 C14.8,1.566 14.434,1.2 14,1.2 L5.2,1.2 C4.766,1.2 4.4,1.566 4.4,2 L4.4,10.8 C4.4,11.234 4.766,11.6 5.2,11.6 L14,11.6 C14.434,11.6 14.8,11.234 14.8,10.8 Z M12.5912,4.765 L13.1252,5.299 C13.3602,5.534 13.3602,5.914 13.1252,6.148 C13.0082,6.265 12.8552,6.324 12.7012,6.324 C12.5482,6.324 12.3942,6.265 12.2772,6.148 L12.2512,6.122 L10.5342,8.598 L10.8172,8.881 C11.0522,9.116 11.0522,9.496 10.8172,9.73 C10.7002,9.847 10.5462,9.906 10.3932,9.906 C10.2402,9.906 10.0862,9.847 9.9692,9.73 L9.3312,9.093 L8.5442,8.305 L6.9252,9.925 C6.8082,10.042 6.6542,10.101 6.5002,10.101 C6.3472,10.101 6.1932,10.042 6.0762,9.925 C5.8422,9.69 5.8422,9.311 6.0762,9.076 L7.6952,7.457 L6.9082,6.669 L6.2702,6.032 C6.0362,5.797 6.0362,5.417 6.2702,5.183 C6.5052,4.949 6.8852,4.949 7.1192,5.183 L7.4022,5.466 L9.8782,3.75 L9.8522,3.724 C9.6182,3.49 9.6182,3.11 9.8522,2.875 C10.0872,2.642 10.4672,2.642 10.7012,2.875 L11.2342,3.408 C11.2342,3.409 11.2352,3.409 11.2352,3.409 L12.5912,4.765 Z M11.6,14 L11.6,12.8 L5.2,12.8 C4.1,12.8 3.2,11.9 3.2,10.8 L3.2,4.4 L2,4.4 C1.566,4.4 1.2,4.766 1.2,5.2 L1.2,14 C1.2,14.434 1.566,14.8 2,14.8 L10.8,14.8 C11.234,14.8 11.6,14.434 11.6,14 Z" id="Combined-Shape"></path>
            </g>
        </g>
    </g>
</svg>

<svg xmlns="http://www.w3.org/2000/svg" viewBox="0 0 16 16">
    <path d="M9.672 7.736L8.264 6.328l2.477-1.716.647.648-1.716 2.476zM14 0c1.1 0 2 .9 2 2v8.8c0 1.1-.9 2-2 2h-1.2V14c0 1.1-.9 2-2 2H2c-1.1 0-2-.9-2-2V5.2c0-1.1.9-2 2-2h1.2V2c0-1.1.9-2 2-2H14zm.8 10.8V2a.81.81 0 0 0-.8-.8H5.2a.81.81 0 0 0-.8.8v8.8c0 .434.366.8.8.8H14a.81.81 0 0 0 .8-.8zm-2.209-6.035l.534.534a.6.6 0 1 1-.848.849l-.026-.026-1.717 2.476.283.283a.6.6 0 1 1-.848.849l-.638-.637-.787-.788-1.619 1.62a.6.6 0 1 1-.849-.849l1.62-1.619-.788-.788-.638-.637a.601.601 0 0 1 .85-.849l.282.283L9.878 3.75l-.026-.026a.601.601 0 0 1 .85-.849l.532.533.001.001 1.356 1.356zM11.6 14v-1.2H5.2c-1.1 0-2-.9-2-2V4.4H2a.81.81 0 0 0-.8.8V14c0 .434.366.8.8.8h8.8a.81.81 0 0 0 .8-.8z"/>
</svg>
